X: 1904
T: Swab the Decks
C:trad
B: australian traditional tunes wiki
M:4/4
L:1/8
Q: 1/4=100
K:G
V:1 
|:"G"GB- Bd/c/ BdBA|"G"GB- Bd/c/ Bdgd|GB- Bd/c/ BdBG|"Am"ecBA "G"G2G,2:|
|:"G"Bddg dgdB|"G"Bddg "D"fa"Am"Ac|"G"Bddg dgdB|"Am"ecBA "G"G2G,2:|
% abcbook-tune_id 6342d53a25d2026129e4c1b9


% abcbook-boost 0
% abcbook-tablature 
% abcbook-transpose 
% abcbook-lastupdated 1665324391815
% abcbook-soundfonts 
% abcbook-repeats 1
% NFF Book 2020
% Bush Traditions recording played by Roland Clarke

